X: 29
T:Kelly of Killane
R:march
Z:John Chambers <jc@eddie.mit.edu>
M:2/4
L:1/8
K:G
|:GB|d2 Bd|g2 fe|d2 BG|E2 GA|B2 AB|dc AF|G4 -|G2:|
Bd|e2 ce|g2 fe|d2 de|d2 Bd|e2 ce|g2 fe|d4 -|d2||
Bc|d2 Bd|g2 fe|d2 BG|E2 GA|B2 AB|dc AF|G4 -|G2||
